static/icons/twitter.svg

<svg height="24" viewBox="0 0 24 24" width="24" xmlns="http://www.w3.org/2000/svg"><path d="m8.28959992 20.251175c7.54719988 0 11.67519988-6.2527999 11.67519988-11.67519983 0-.1776 0-.3544-.012-.5304.8030651-.5808713 1.4962844-1.30009646 2.0472002-2.12399997-.748897.33184141-1.5433368.54946291-2.3568002.64559999.8565952-.51281434 1.4976988-1.31938239 1.804-2.26959997-.805474.47796425-1.6866831.8148096-2.6056.99599999-1.2719338-1.35248456-3.2930244-1.68350991-4.9299605-.80745605s-2.4826194 2.74131661-2.0628394 4.549856c-3.29928339-.16540037-6.37321932-1.72374136-8.45679992-4.28719995-1.08910178 1.87491576-.53280969 4.27348754 1.27039999 5.47759989-.65300703-.0193539-1.29177649-.1955094-1.86239998-.51359995v.052c.0005345 1.95327435 1.37740118 3.63562805 3.29199996 4.02239995-.60410431.1647521-1.23793551.1888354-1.85279998.0704.53755834 1.6715383 2.07805963 2.8166271 3.83359996 2.8495999-1.45301195 1.1419456-3.24795236 1.7618623-5.09599994 1.76-.32647714-.0006267-.65263674-.020394-.97679999-.0592 1.87650874 1.2042213 4.05993067 1.8429736 6.28959992 1.84" fill="#1da1f2"/></svg>

<?xml version="1.0" encoding="UTF-8"?>
<svg width="24px" height="24px" viewBox="0 0 24 24" version="1.1" xmlns="http://www.w3.org/2000/svg" xmlns:xlink="http://www.w3.org/1999/xlink">
  <path d="M8.28959992,20.251175 C15.8367998,20.251175 19.9647998,13.9983751 19.9647998,8.57597517 C19.9647998,8.39837517 19.9647998,8.22157517 19.9527998,8.04557517 C20.7558649,7.46470387 21.4490842,6.74547871 22,5.9215752 C21.251103,6.25341661 20.4566632,6.47103811 19.6431998,6.56717519 C20.499795,6.05436085 21.1408986,5.2477928 21.4471998,4.29757522 C20.6417258,4.77553947 19.7605167,5.11238482 18.8415998,5.29357521 C17.569666,3.94109065 15.5485754,3.6100653 13.9116393,4.48611916 C12.2747032,5.36217302 11.4290199,7.22743577 11.8487999,9.03597516 C8.54951651,8.87057479 5.47558058,7.3122338 3.39199998,4.74877521 C2.3028982,6.62369097 2.85919029,9.02226275 4.66239997,10.2263751 C4.00939294,10.2070212 3.37062348,10.0308657 2.79999999,9.71277515 C2.79999999,9.72957515 2.79999999,9.74717515 2.79999999,9.76477515 C2.80053449,11.7180495 4.17740117,13.4004032 6.09199995,13.7871751 C5.48789564,13.9519272 4.85406444,13.9760105 4.23919997,13.8575751 C4.77675831,15.5291134 6.3172596,16.6742022 8.07279993,16.707175 C6.61978798,17.8491206 4.82484757,18.4690373 2.97679999,18.467175 C2.65032285,18.4665483 2.32416325,18.446781 2,18.407975 C3.87650874,19.6121963 6.05993067,20.2509486 8.28959992,20.247975" fill="#1DA1F2"></path>
</svg>
